assets/img/ods/SDG-16.svg

<svg width="720" height="720" viewBox="0 0 720 720" fill="none" xmlns="http://www.w3.org/2000/svg">
<g clip-path="url(#clip0_342_28)">
<path d="M-1.08008 -1.08008H721.08V721.08H-1.08008V-1.08008Z" fill="#BBBBBB"/>
<path d="M49.12 88.93C45 91.14 33.31 94.37 29.23 96.41V76.86C34.67 74.65 49.8 67.34 54.9 61.73H75.47V199.43H49.12V88.93ZM80.4 156.08V107.08C80.4 80.26 87.88 60 117.46 60C142.79 60 152.14 72.41 152.31 94.85V97.23H127.49C127.49 85.67 126.3 80.06 117.63 80.06C109.3 80.06 107.09 86.69 107.09 107.94V121.88C109.98 116.95 116.61 114.06 124.77 113.88C146.7 113.54 154.52 130.71 154.52 153.49C154.52 181.54 145.68 201.26 117.63 201.26C91.28 201.3 80.4 182.09 80.4 156.08ZM128.17 158C128.17 144.06 127.83 134 117.63 134C115.483 134.063 113.387 134.674 111.542 135.775C109.698 136.876 108.165 138.43 107.09 140.29V162.2C107.09 172.57 109.3 181.75 117.8 181.75C126.47 181.75 128.17 173.08 128.17 158ZM229.73 61.63H245.2C254.63 61.63 258.66 67.09 258.66 76.58C258.66 86.91 253.07 90.88 244.55 90.88H239.29V114.28H229.73V61.63ZM243 84.12C248.27 84.12 249.63 82.12 249.63 76.51C249.63 70.9 248.92 68.39 243 68.39H239.3V84.12H243ZM267.82 61.63H278.09L288.62 114.28H279.72L277.64 102.12H268.47L266.33 114.28H257.33L267.82 61.63ZM276.6 96L273 73.91L269.45 96H276.6ZM290.83 108.1L304.94 68.26H291.55V61.63H314.62V66.57L299.93 107.71H314.69V114.28H290.83V108.1ZM318.13 119.87C319.386 119.596 320.502 118.882 321.278 117.857C322.053 116.832 322.437 115.563 322.36 114.28H317.67V105.5H326.32V113.5C326.32 119.09 323.91 122.14 319.04 123.05L318.13 119.87ZM342.63 108.82C348.16 108.82 349.63 107.82 349.63 102.25V61.63H359.19V102.51C359.19 111.35 356.65 115.58 347.29 115.58H342.67L342.63 108.82ZM365.45 97.25V61.63H374.81V98.35C374.81 103.35 375.39 107.84 380.27 107.84C385.15 107.84 385.79 103.36 385.79 98.35V61.63H395.09V97.25C395.09 108.25 392.03 114.99 380.27 114.99C368.51 114.99 365.45 108.3 365.45 97.25ZM400 98.94L408.25 97.31C408.51 103.55 410.01 107.58 414.25 107.58C417.31 107.58 418.61 105.5 418.61 102.64C418.61 98.09 416.27 95.56 412.82 92.57L406.19 86.78C402.42 83.53 400.08 79.89 400.08 74.04C400.08 65.72 405.28 61.04 413.67 61.04C423.55 61.04 426.34 67.67 426.86 75.34L418.61 76.77C418.41 71.83 417.7 68.13 413.47 68.13C410.61 68.13 409.05 70.27 409.05 73.07C409.05 76.64 410.55 78.59 413.34 81L419.91 86.78C424.2 90.49 427.77 95.1 427.77 102.06C427.77 109.66 422.44 114.99 414.58 114.99C405 115 400.42 109.4 400 98.94ZM437.4 68.71H429V61.63H455.19V68.71H447V114.28H437.4V68.71ZM459 61.63H468.49V114.28H459V61.63ZM494.47 80.61V76.06C494.47 71.64 494.41 68.06 489.53 68.06C484.65 68.06 484.14 71.83 484.14 76.64V99.46C484.14 105.18 485.31 107.91 489.53 107.91C494.28 107.91 494.47 104.2 494.47 99.52V94.78H503.7V99C503.7 107.91 500.84 114.47 490.77 115V118.25C495.58 118.25 498.83 120.4 498.83 124.43C498.83 129.04 494.73 130.99 489.99 130.99C488.404 130.974 486.829 130.735 485.31 130.28V126.18C486.446 126.534 487.63 126.709 488.82 126.7C491.09 126.7 492.82 126.05 492.82 124.3C492.82 121.96 490.16 121.11 487.1 120.79V114.87C477.48 113.87 474.49 106.94 474.49 97.45V78.66C474.49 67.87 477.94 61.04 489.49 61.04C500.28 61.04 503.72 67.04 503.72 76.19V80.61H494.47ZM517 61.63H527.27L537.8 114.28H528.9L526.82 102.12H517.65L515.51 114.28H506.51L517 61.63ZM525.74 96L522.16 73.9L518.59 96H525.74ZM556.22 61.63H578.32V68.39H565.78V83.53H575.66V90.23H565.78V107.71H578.45V114.28H556.22V61.63ZM230 147.63H239.49V200.28H230V147.63ZM246.31 147.63H253L265.81 177.63V147.63H273.74V200.28H267.37L254.5 168.82V200.28H246.31V147.63ZM279.13 184.94L287.39 183.31C287.65 189.55 289.14 193.58 293.39 193.58C296.44 193.58 297.74 191.5 297.74 188.64C297.74 184.09 295.4 181.56 291.96 178.57L285.33 172.78C281.56 169.53 279.22 165.89 279.22 160.04C279.22 151.72 284.42 147.04 292.8 147.04C302.68 147.04 305.48 153.67 306 161.34L297.74 162.77C297.55 157.83 296.83 154.13 292.61 154.13C289.75 154.13 288.19 156.27 288.19 159.07C288.19 162.64 289.68 164.59 292.48 167L299.04 172.78C303.33 176.49 306.91 181.1 306.91 188.06C306.91 195.66 301.58 200.99 293.71 200.99C284.07 201 279.52 195.4 279.13 184.94ZM316.51 154.71H308.12V147.63H334.32V154.71H326.13V200.28H316.51V154.71ZM338.08 147.63H347.57V200.28H338.08V147.63ZM359.66 154.71H351.28V147.63H377.47V154.71H369.28V200.28H359.66V154.71ZM380.59 183.25V147.63H390V184.35C390 189.35 390.59 193.84 395.46 193.84C400.33 193.84 400.99 189.36 400.99 184.35V147.63H410.28V183.25C410.28 194.3 407.23 200.99 395.46 200.99C383.69 200.99 380.59 194.3 380.59 183.25ZM416.73 147.63H426.22V200.28H416.73V147.63ZM452.22 166.61V162.06C452.22 157.64 452.16 154.06 447.28 154.06C442.4 154.06 441.89 157.83 441.89 162.64V185.46C441.89 191.18 443.06 193.91 447.28 193.91C452.03 193.91 452.22 190.2 452.22 185.52V180.78H461.45V185C461.45 193.91 458.59 200.47 448.52 201V204.25C453.33 204.25 456.58 206.4 456.58 210.43C456.58 215.04 452.48 216.99 447.74 216.99C446.154 216.974 444.579 216.735 443.06 216.28V212.18C444.196 212.534 445.38 212.709 446.57 212.7C448.84 212.7 450.57 212.05 450.57 210.3C450.57 207.96 447.91 207.11 444.85 206.79V200.87C435.23 199.87 432.24 192.94 432.24 183.45V164.66C432.24 153.87 435.69 147.04 447.24 147.04C458.03 147.04 461.47 153.04 461.47 162.19V166.61H452.22ZM466 183.77V164C466 153.34 469.9 147 481.21 147C492.52 147 496.36 153.31 496.36 164V183.76C496.36 194.35 492.46 200.98 481.21 200.98C469.96 200.98 466 194.43 466 183.77ZM478 137.68C476.31 137.68 475.72 138.68 475.72 140.35H471.2C471.2 135.67 472.5 132.16 476.73 132.16C479.91 132.16 482.06 135.16 484.85 135.16C486.35 135.16 486.93 134.25 486.93 132.56H491.22C491.22 136.65 490.51 140.75 486.28 140.75C482.9 140.74 480.69 137.68 478 137.68ZM486.61 186V161.8C486.61 157.38 485.89 154.06 481.21 154.06C476.53 154.06 475.75 157.38 475.75 161.8V186C475.75 190.36 476.47 193.87 481.21 193.87C485.95 193.87 486.61 190.4 486.61 186ZM502.14 147.63H524.24V154.39H511.7V169.53H521.58V176.23H511.7V193.71H524.37V200.28H502.14V147.63ZM527.36 184.94L535.62 183.31C535.88 189.55 537.37 193.58 541.62 193.58C544.62 193.58 545.97 191.5 545.97 188.64C545.97 184.09 543.63 181.56 540.19 178.57L533.56 172.78C529.79 169.53 527.45 165.89 527.45 160.04C527.45 151.72 532.65 147.04 541.03 147.04C550.91 147.04 553.71 153.67 554.23 161.34L546 162.77C545.81 157.83 545.09 154.13 540.87 154.13C538.01 154.13 536.45 156.27 536.45 159.07C536.45 162.64 537.94 164.59 540.74 167L547.3 172.78C551.59 176.49 555.17 181.1 555.17 188.06C555.17 195.66 549.84 200.99 541.97 200.99C532.3 201 527.75 195.4 527.36 184.94ZM229.73 233.63H251.83V240.39H239.29V255.53H249.17V262.23H239.29V279.71H252V286.28H229.73V233.63ZM256.25 233.63H277.9V240.26H265.81V255.6H275.69V262.29H265.81V286.29H256.25V233.63ZM282.06 233.63H291.55V286.28H282.06V233.63ZM297.53 269.44V250.66C297.53 239.87 300.97 233.04 312.53 233.04C323.32 233.04 326.77 239.04 326.77 248.19V252.61H317.54V248.06C317.54 243.64 317.47 240.06 312.6 240.06C307.73 240.06 307.2 243.83 307.2 248.64V271.46C307.2 277.18 308.37 279.91 312.6 279.91C317.34 279.91 317.54 276.2 317.54 271.52V266.78H326.77V271C326.77 280.3 323.65 287 312.53 287C301 287 297.53 279.71 297.53 269.44ZM340 233.63H350.28L360.81 286.28H351.9L349.82 274.12H340.66L338.51 286.28H329.51L340 233.63ZM348.81 268L345.24 245.9L341.66 268H348.81ZM363 280.1L377.11 240.26H363.76V233.63H386.83V238.57L372.14 279.71H386.9V286.28H363V280.1ZM391.12 233.63H413.22V240.39H400.68V255.53H410.56V262.23H400.68V279.71H413.35V286.28H391.12V233.63ZM416.34 270.94L424.6 269.31C424.86 275.55 426.35 279.58 430.6 279.58C433.65 279.58 434.95 277.5 434.95 274.64C434.95 270.09 432.61 267.56 429.17 264.57L422.54 258.78C418.77 255.53 416.43 251.89 416.43 246.04C416.43 237.72 421.63 233.04 430.01 233.04C439.89 233.04 442.69 239.67 443.21 247.34L434.95 248.77C434.76 243.83 434.04 240.13 429.82 240.13C426.96 240.13 425.4 242.27 425.4 245.07C425.4 248.64 426.89 250.59 429.69 253L436.25 258.78C440.54 262.49 444.12 267.1 444.12 274.06C444.12 281.66 438.79 286.99 430.92 286.99C421.28 287 416.73 281.4 416.34 270.94ZM478.8 327.34C478.8 327.34 471.8 336.69 473.8 345.8C475.8 354.91 486.25 360.33 486.25 360.33C486.25 360.33 493.3 350.98 491.25 341.87C489.2 332.76 478.81 327.34 478.81 327.34M467.32 380.74C467.32 380.74 474.37 371.38 472.32 362.27C470.27 353.16 459.88 347.75 459.88 347.75C459.88 347.75 452.83 357.09 454.88 366.21C456.93 375.33 467.33 380.74 467.33 380.74M496.26 370.73C496.26 370.73 503.7 378.23 512.17 377.47C520.64 376.71 526.92 368 526.92 368C526.92 368 519.49 360.5 511.01 361.25C502.53 362 496.26 370.72 496.26 370.72M508.45 330.67C501.56 337.67 502.53 350.03 502.53 350.03C502.53 350.03 514.68 351.08 521.58 344.1C528.48 337.12 527.5 324.74 527.5 324.74C527.5 324.74 515.34 323.69 508.45 330.67ZM493.25 398.53C501.68 399.53 509.62 392.28 509.62 392.28C509.62 392.28 503.87 383.42 495.44 382.42C487.01 381.42 479.06 388.68 479.06 388.68C479.06 388.68 484.81 397.53 493.25 398.53ZM500.78 534.19H437.71C435.344 534.19 433.075 535.13 431.403 536.803C429.73 538.475 428.79 540.744 428.79 543.11C428.79 545.476 429.73 547.745 431.403 549.417C433.075 551.09 435.344 552.03 437.71 552.03H500.78C503.146 552.03 505.415 551.09 507.087 549.417C508.76 547.745 509.7 545.476 509.7 543.11C509.7 540.744 508.76 538.475 507.087 536.803C505.415 535.13 503.146 534.19 500.78 534.19ZM500.78 632.54H437.71C436.513 632.5 435.32 632.701 434.202 633.132C433.084 633.562 432.064 634.213 431.203 635.046C430.342 635.878 429.657 636.876 429.19 637.979C428.722 639.082 428.481 640.267 428.481 641.465C428.481 642.663 428.722 643.848 429.19 644.951C429.657 646.054 430.342 647.051 431.203 647.884C432.064 648.717 433.084 649.368 434.202 649.798C435.32 650.229 436.513 650.43 437.71 650.39H500.78C503.095 650.313 505.29 649.338 506.9 647.673C508.511 646.008 509.411 643.782 509.411 641.465C509.411 639.148 508.511 636.922 506.9 635.257C505.29 633.592 503.095 632.617 500.78 632.54ZM217.12 512.52C215.682 512.065 214.22 511.691 212.74 511.4C212.74 511.4 214.36 511.9 217.12 512.52Z" fill="white"/>
<path d="M498.46 558.26H440C438.654 558.262 437.363 558.798 436.411 559.751C435.459 560.703 434.923 561.993 434.92 563.34V581L396.77 585.19L341 584V549.91C348.494 548.958 355.908 547.454 363.18 545.41C416.83 530.27 428.53 496.85 427.37 466.16C426.2 434.9 436.2 422.76 450.58 417.36C454.441 415.93 458.429 414.872 462.49 414.2C462.65 421.88 464.21 430.81 467.64 441.44C468.91 441.37 470.18 441.27 471.44 441.13C467.82 430.25 466.27 421.3 466.19 413.67C470.408 413.136 474.668 413.009 478.91 413.29C474.618 410.79 470.564 407.901 466.8 404.66C469.21 389.86 478.03 380.77 487.11 371.48C492.11 366.36 497.27 361.08 501.33 354.78L498.17 352.78C494.32 358.78 489.27 363.9 484.41 368.88C475.55 377.95 466.61 387.21 463.58 401.88C460.349 398.968 457.281 395.88 454.39 392.63C441.16 377.8 424.13 388.7 399.84 411.31C375.55 433.92 344.98 434.69 315.14 404.16C275.76 363.84 241.41 364.07 217.86 366.36C233.97 373.23 239.61 388.28 247.77 426.55C256.31 466.71 277.87 484.87 307.35 487.38C293.69 489.6 290.14 491.49 268.17 506.67C251.01 518.51 226.87 514.77 217.08 512.54C235.08 518.14 256.33 536.99 275.37 543.54C286.606 547.373 298.282 549.768 310.12 550.67V583.26L204.42 581V603.74L396.78 599.47L434.93 603.67V621.36C434.933 622.706 435.469 623.997 436.421 624.949C437.373 625.901 438.664 626.437 440.01 626.44H498.46C499.808 626.44 501.101 625.905 502.056 624.952C503.01 624 503.547 622.708 503.55 621.36V563.36C503.551 562.691 503.421 562.028 503.165 561.409C502.91 560.79 502.536 560.228 502.063 559.754C501.59 559.28 501.028 558.905 500.41 558.648C499.792 558.392 499.129 558.26 498.46 558.26ZM319.34 551.13C323.5 551.203 327.67 551.09 331.85 550.79V583.79L319.34 583.5V551.13ZM199 600C199 604.79 195.65 608.68 191.53 608.68H187C182.88 608.68 179.52 604.79 179.52 600V584.23C179.52 579.43 182.88 575.55 187 575.55H191.49C195.61 575.55 198.96 579.43 198.96 584.23L199 600Z" fill="white"/>
</g>
<defs>
<clipPath id="clip0_342_28">
<rect width="720" height="720" fill="white"/>
</clipPath>
</defs>
</svg>

<svg xmlns="http://www.w3.org/2000/svg" viewBox="0 0 720 720"><defs><style>.cls-2{fill:#fff}</style></defs><path fill="#00689d" d="M-1.08-1.08h722.16v722.16H-1.08z" id="goal_background" data-name="goal background"/><g id="ENG_text_graphics" data-name="ENG text &amp; graphics"><path class="cls-2" d="M49.12 88.93c-4.12 2.21-15.81 5.44-19.89 7.48V76.86c5.44-2.21 20.57-9.52 25.67-15.13h20.57v137.7H49.12zM80.4 156.08v-49C80.4 80.26 87.88 60 117.46 60c25.33 0 34.68 12.41 34.85 34.85v2.38h-24.82c0-11.56-1.19-17.17-9.86-17.17-8.33 0-10.54 6.63-10.54 27.88v13.94c2.89-4.93 9.52-7.82 17.68-8 21.93-.34 29.75 16.83 29.75 39.61 0 28.05-8.84 47.77-36.89 47.77-26.35.04-37.23-19.17-37.23-45.18zm47.77 1.92c0-13.94-.34-24-10.54-24a12.6 12.6 0 00-10.54 6.29v21.91c0 10.37 2.21 19.55 10.71 19.55 8.67 0 10.37-8.67 10.37-23.75zM229.73 61.63h15.47c9.43 0 13.46 5.46 13.46 14.95 0 10.33-5.59 14.3-14.11 14.3h-5.26v23.4h-9.56zM243 84.12c5.27 0 6.63-2 6.63-7.61s-.71-8.12-6.63-8.12h-3.7v15.73zM267.82 61.63h10.27l10.53 52.65h-8.9l-2.08-12.16h-9.17l-2.14 12.16h-9zM276.6 96L273 73.91 269.45 96zM290.83 108.1l14.11-39.84h-13.39v-6.63h23.07v4.94l-14.69 41.14h14.76v6.57h-23.86zM318.13 119.87a5.39 5.39 0 004.23-5.59h-4.69v-8.78h8.65v8c0 5.59-2.41 8.64-7.28 9.55zM342.63 108.82c5.53 0 7-1 7-6.57V61.63h9.56v40.88c0 8.84-2.54 13.07-11.9 13.07h-4.62zM365.45 97.25V61.63h9.36v36.72c0 5 .58 9.49 5.46 9.49s5.52-4.48 5.52-9.49V61.63h9.3v35.62c0 11-3.06 17.74-14.82 17.74s-14.82-6.69-14.82-17.74zM400 98.94l8.25-1.63c.26 6.24 1.76 10.27 6 10.27 3.06 0 4.36-2.08 4.36-4.94 0-4.55-2.34-7.08-5.79-10.07l-6.63-5.79c-3.77-3.25-6.11-6.89-6.11-12.74 0-8.32 5.2-13 13.59-13 9.88 0 12.67 6.63 13.19 14.3l-8.25 1.43c-.2-4.94-.91-8.64-5.14-8.64-2.86 0-4.42 2.14-4.42 4.94 0 3.57 1.5 5.52 4.29 7.93l6.57 5.78c4.29 3.71 7.86 8.32 7.86 15.28 0 7.6-5.33 12.93-13.19 12.93-9.58.01-14.16-5.59-14.58-16.05zM437.4 68.71H429v-7.08h26.19v7.08H447v45.57h-9.6zM459 61.63h9.49v52.65H459zM494.47 80.61v-4.55c0-4.42-.06-8-4.94-8s-5.39 3.77-5.39 8.58v22.82c0 5.72 1.17 8.45 5.39 8.45 4.75 0 4.94-3.71 4.94-8.39v-4.74h9.23V99c0 8.91-2.86 15.47-12.93 16v3.25c4.81 0 8.06 2.15 8.06 6.18 0 4.61-4.1 6.56-8.84 6.56a16.87 16.87 0 01-4.68-.71v-4.1a11.51 11.51 0 003.51.52c2.27 0 4-.65 4-2.4 0-2.34-2.66-3.19-5.72-3.51v-5.92c-9.62-1-12.61-7.93-12.61-17.42V78.66c0-10.79 3.45-17.62 15-17.62 10.79 0 14.23 6 14.23 15.15v4.42zM517 61.63h10.27l10.53 52.65h-8.9l-2.08-12.16h-9.17l-2.14 12.16h-9zM525.74 96l-3.58-22.1-3.57 22.1zM556.22 61.63h22.1v6.76h-12.54v15.14h9.88v6.7h-9.88v17.48h12.67v6.57h-22.23zM230 147.63h9.49v52.65H230zM246.31 147.63H253l12.81 30v-30h7.93v52.65h-6.37l-12.87-31.46v31.46h-8.19zM279.13 184.94l8.26-1.63c.26 6.24 1.75 10.27 6 10.27 3.05 0 4.35-2.08 4.35-4.94 0-4.55-2.34-7.08-5.78-10.07l-6.63-5.79c-3.77-3.25-6.11-6.89-6.11-12.74 0-8.32 5.2-13 13.58-13 9.88 0 12.68 6.63 13.2 14.3l-8.26 1.43c-.19-4.94-.91-8.64-5.13-8.64-2.86 0-4.42 2.14-4.42 4.94 0 3.57 1.49 5.52 4.29 7.93l6.56 5.78c4.29 3.71 7.87 8.32 7.87 15.28 0 7.6-5.33 12.93-13.2 12.93-9.64.01-14.19-5.59-14.58-16.05zM316.51 154.71h-8.39v-7.08h26.2v7.08h-8.19v45.57h-9.62zM338.08 147.63h9.49v52.65h-9.49zM359.66 154.71h-8.38v-7.08h26.19v7.08h-8.19v45.57h-9.62zM380.59 183.25v-35.62H390v36.72c0 5 .59 9.49 5.46 9.49s5.53-4.48 5.53-9.49v-36.72h9.29v35.62c0 11.05-3.05 17.74-14.82 17.74s-14.87-6.69-14.87-17.74zM416.73 147.63h9.49v52.65h-9.49zM452.22 166.61v-4.55c0-4.42-.06-8-4.94-8s-5.39 3.77-5.39 8.58v22.82c0 5.72 1.17 8.45 5.39 8.45 4.75 0 4.94-3.71 4.94-8.39v-4.74h9.23V185c0 8.91-2.86 15.47-12.93 16v3.25c4.81 0 8.06 2.15 8.06 6.18 0 4.61-4.1 6.56-8.84 6.56a16.87 16.87 0 01-4.68-.71v-4.1a11.51 11.51 0 003.51.52c2.27 0 4-.65 4-2.4 0-2.34-2.66-3.19-5.72-3.51v-5.92c-9.62-1-12.61-7.93-12.61-17.42v-18.79c0-10.79 3.45-17.62 15-17.62 10.79 0 14.23 6 14.23 15.15v4.42zM466 183.77V164c0-10.66 3.9-17 15.21-17s15.15 6.31 15.15 17v19.76c0 10.59-3.9 17.22-15.15 17.22S466 194.43 466 183.77zm12-46.09c-1.69 0-2.28 1-2.28 2.67h-4.52c0-4.68 1.3-8.19 5.53-8.19 3.18 0 5.33 3 8.12 3 1.5 0 2.08-.91 2.08-2.6h4.29c0 4.09-.71 8.19-4.94 8.19-3.38-.01-5.59-3.07-8.28-3.07zm8.61 48.32v-24.2c0-4.42-.72-7.74-5.4-7.74s-5.46 3.32-5.46 7.74V186c0 4.36.72 7.87 5.46 7.87s5.4-3.47 5.4-7.87zM502.14 147.63h22.1v6.76H511.7v15.14h9.88v6.7h-9.88v17.48h12.67v6.57h-22.23zM527.36 184.94l8.26-1.63c.26 6.24 1.75 10.27 6 10.27 3 0 4.35-2.08 4.35-4.94 0-4.55-2.34-7.08-5.78-10.07l-6.63-5.79c-3.77-3.25-6.11-6.89-6.11-12.74 0-8.32 5.2-13 13.58-13 9.88 0 12.68 6.63 13.2 14.3l-8.23 1.43c-.19-4.94-.91-8.64-5.13-8.64-2.86 0-4.42 2.14-4.42 4.94 0 3.57 1.49 5.52 4.29 7.93l6.56 5.78c4.29 3.71 7.87 8.32 7.87 15.28 0 7.6-5.33 12.93-13.2 12.93-9.67.01-14.22-5.59-14.61-16.05zM229.73 233.63h22.1v6.76h-12.54v15.14h9.88v6.7h-9.88v17.48H252v6.57h-22.27zM256.25 233.63h21.65v6.63h-12.09v15.34h9.88v6.69h-9.88v24h-9.56zM282.06 233.63h9.49v52.65h-9.49zM297.53 269.44v-18.78c0-10.79 3.44-17.62 15-17.62 10.79 0 14.24 6 14.24 15.15v4.42h-9.23v-4.55c0-4.42-.07-8-4.94-8s-5.4 3.77-5.4 8.58v22.82c0 5.72 1.17 8.45 5.4 8.45 4.74 0 4.94-3.71 4.94-8.39v-4.74h9.23V271c0 9.3-3.12 16-14.24 16-11.53 0-15-7.29-15-17.56zM340 233.63h10.28l10.53 52.65h-8.91l-2.08-12.16h-9.16l-2.15 12.16h-9zm8.81 34.37l-3.57-22.1-3.58 22.1zM363 280.1l14.11-39.84h-13.35v-6.63h23.07v4.94l-14.69 41.14h14.76v6.57H363zM391.12 233.63h22.1v6.76h-12.54v15.14h9.88v6.7h-9.88v17.48h12.67v6.57h-22.23zM416.34 270.94l8.26-1.63c.26 6.24 1.75 10.27 6 10.27 3.05 0 4.35-2.08 4.35-4.94 0-4.55-2.34-7.08-5.78-10.07l-6.63-5.79c-3.77-3.25-6.11-6.89-6.11-12.74 0-8.32 5.2-13 13.58-13 9.88 0 12.68 6.63 13.2 14.3l-8.26 1.43c-.19-4.94-.91-8.64-5.13-8.64-2.86 0-4.42 2.14-4.42 4.94 0 3.57 1.49 5.52 4.29 7.93l6.56 5.78c4.29 3.71 7.87 8.32 7.87 15.28 0 7.6-5.33 12.93-13.2 12.93-9.64.01-14.19-5.59-14.58-16.05zM478.8 327.34s-7 9.35-5 18.46 12.45 14.53 12.45 14.53 7.05-9.35 5-18.46-12.44-14.53-12.44-14.53M467.32 380.74s7.05-9.36 5-18.47-12.44-14.52-12.44-14.52-7.05 9.34-5 18.46 12.45 14.53 12.45 14.53M496.26 370.73s7.44 7.5 15.91 6.74 14.75-9.47 14.75-9.47-7.43-7.5-15.91-6.75-14.75 9.47-14.75 9.47M508.45 330.67c-6.89 7-5.92 19.36-5.92 19.36s12.15 1.05 19.05-5.93 5.92-19.36 5.92-19.36-12.16-1.05-19.05 5.93M493.25 398.53c8.43 1 16.37-6.25 16.37-6.25s-5.75-8.86-14.18-9.86-16.38 6.26-16.38 6.26 5.75 8.85 14.19 9.85M500.78 534.19h-63.07a8.92 8.92 0 100 17.84h63.07a8.92 8.92 0 100-17.84M500.78 632.54h-63.07a8.93 8.93 0 100 17.85h63.07a8.93 8.93 0 000-17.85M217.12 512.52a40.28 40.28 0 00-4.38-1.12s1.62.5 4.38 1.12"/><path class="cls-2" d="M498.46 558.26H440a5.09 5.09 0 00-5.08 5.08V581l-38.15 4.19L341 584v-34.09a153.27 153.27 0 0022.18-4.5c53.65-15.14 65.35-48.56 64.19-79.25-1.17-31.26 8.83-43.4 23.21-48.8a64.77 64.77 0 0111.91-3.16c.16 7.68 1.72 16.61 5.15 27.24 1.27-.07 2.54-.17 3.8-.31-3.62-10.88-5.17-19.83-5.25-27.46a66.43 66.43 0 0112.72-.38 81.08 81.08 0 01-12.11-8.63c2.41-14.8 11.23-23.89 20.31-33.18 5-5.12 10.16-10.4 14.22-16.7l-3.16-2c-3.85 6-8.9 11.12-13.76 16.1-8.86 9.07-17.8 18.33-20.83 33a118.36 118.36 0 01-9.19-9.25c-13.23-14.83-30.26-3.93-54.55 18.68s-54.86 23.38-84.7-7.15c-39.38-40.32-73.73-40.09-97.28-37.8 16.11 6.87 21.75 21.92 29.91 60.19 8.54 40.16 30.1 58.32 59.58 60.83-13.66 2.22-17.21 4.11-39.18 19.29-17.16 11.84-41.3 8.1-51.09 5.87 18 5.6 39.25 24.45 58.29 31a140.74 140.74 0 0034.75 7.13v32.59L204.42 581v22.74l192.36-4.27 38.15 4.2v17.69a5.09 5.09 0 005.08 5.08h58.45a5.09 5.09 0 005.09-5.08v-58a5.09 5.09 0 00-5.09-5.1zm-179.12-7.13q6.24.11 12.51-.34v33l-12.51-.29zM199 600c0 4.79-3.35 8.68-7.47 8.68H187c-4.12 0-7.48-3.89-7.48-8.68v-15.77c0-4.8 3.36-8.68 7.48-8.68h4.49c4.12 0 7.47 3.88 7.47 8.68z"/></g></svg>
